!!!!SEGMENT: pl-wtm--iii-40-841--001-001_tarnowski-adam--trzy-spiewki-z-obrazka-wiejskiego-janek-z-pod-ojcowa-no-1-mazur.krn
!!!cenid: 18xx:4351
!!!COM: Tarnowski, Adam
!!!COM-rismID: pe50042388
!!!CDT: 1816-1890/05/01
!!!CNT: Polish
!!!GTL: Trzy śpiewki z obrazka wiejskiego „Janek z pod Ojcowa”
!!!OTL: No. 1. Mazur
!!!OMV: 001
!!!PDT:
!!!AGN: Secular
!!!SMS-siglum: PL-Wtm
!!!SMS-shelfmark: III.40.841
!!!SMS-shelfwork: 001-001 G
!!!SMS-variant:
!!!SMS-altvar:
!!!NIFC-rismSourceID: 1001153056
!!!NIFC-rismChildID: 1001153057
!!!NIFC-islandoraID: pl-wtm:13529
!!!URL-pdf-islandora: https://repozytorium.nifc.pl/islandora/object/pl-wtm:13529/datastream/PDF/view
!!!URL-scan: https://polish.musicsources.pl/pl/lokalizacje/galeria/druki-muzyczne/16657/2 @EN{Scan on Polish Music Sources Website} @PL{Skany w portalu Dziedzictwo Muzyki Polskiej w otwartym dostępie}
!!!ONB-nifc:
!!!AIN: 1 piano 1 vox
!!!key:
**kern	**kern	**dynam	**kern	**text	**text	**text	**text
*part2	*part2	*part2	*part1	*part1	*part1	*part1	*part1
*staff3	*staff2	*	*staff1	*staff1	*staff1	*staff1	*staff1
*	*I"PIANO	*	*I"SPIEW	*	*	*	*
*	*I'pf	*	*I'V	*	*	*	*
*	*Ipiano	*	*Ivox	*	*	*	*
*	*ICklav	*	*ICvox	*	*	*	*
*	*IGacmp	*	*IGsolo	*	*	*	*
*clefF4	*clefG2	*	*clefG2	*	*	*	*
*k[f#]	*k[f#]	*	*k[f#]	*	*	*	*
*G:	*G:	*	*G:	*	*	*	*
*M3/4	*M3/4	*	*M3/4	*	*	*	*
*>[A,B,B1,B2,B3]	*>[A,B,B1,B2,B3]	*	*>[A,B,B1,B2,B3]	*	*	*	*
=1	=1	=1	=1	=1	=1	=1	=1
*>A	*>A	*	*>A	*	*	*	*
!	!	!LO:DY:rj	!	!	!	!	!
8D\ 8G 8B	8b\L 8bb	f	2.r	.	.	.	.
8r	8dd\J 8ddd	.	.	.	.	.	.
2D^\ 2F# 2c	4.ee\ 4.eee	.	.	.	.	.	.
.	8a\ 8aa	.	.	.	.	.	.
=2	=2	=2	=2	=2	=2	=2	=2
4GG/	8cc\L 8ccc	.	2.r	.	.	.	.
.	16r	.	.	.	.	.	.
.	16cc\Jk 16ccc	.	.	.	.	.	.
4D\ 4G 4B	4b\ 4bb	.	.	.	.	.	.
4D\ 4G 4B	4cc\ 4ddd	.	.	.	.	.	.
=3	=3	=3	=3	=3	=3	=3	=3
8D\ 8G 8B	8b\L 8bb	.	2.r	.	.	.	.
8r	8dd\J 8ddd	.	.	.	.	.	.
2D^\ 2F# 2c	4.ee\ 4.eee	.	.	.	.	.	.
.	8a\ 8aa	.	.	.	.	.	.
=4	=4	=4	=4	=4	=4	=4	=4
4GG/	8ccc\L	.	2.r	.	.	.	.
.	16r	.	.	.	.	.	.
.	8qddd/	.	.	.	.	.	.
.	16ccc\Jk	.	.	.	.	.	.
4G\ 4B	4bb\	.	.	.	.	.	.
4G;\ 4B	4gg;\	.	.	.	.	.	.
!!LO:LB:g=original
=5||	=5||	=5||	=5||	=5||	=5||	=5||	=5||
*>B	*>B	*	*>B	*	*	*	*
!LO:TX:t=[segno]	!LO:TX:t=[segno]	!	!LO:TX:t=[segno]	!	!	!	!
8DD/ 8D	8g/ 8b	.	8b\	1. Cho-	2. Choć	3. Choć	4. Choć
8r	8r	.	8dd\	-ciem	się	nie	u-
2DD/ 2D	2c^/ 2f# 2a	.	4.ee\	chlo-	bie-	je-	-bo-
.	.	.	8a\	-pek	-dną	-żdzę	-go
=6	=6	=6	=6	=6	=6	=6	=6
4GG/ 4G	4r	.	8.cc\	nie	kry-	ka-	lecz
.	.	.	16cc\	bo-	-je	-re-	chę-
4r	4d/ 4g 4b	.	4b\	-ga-	sza-	-ta-	-do-
4r	4d/ 4g 4b	.	4dd\	-ty	-tą	-mi	-go.
=7	=7	=7	=7	=7	=7	=7	=7
8DD/ 8D	8g/ 8b	.	8b\	J	J	J	Cho-
8r	8r	.	8dd\	Wy-	bez	no	-ciasz
2DD/ 2D	2c^/ 2f# 2a	.	4.ee\	-sze-	bu-	cho-	w miesz-
.	.	.	8a\	-dłem	-tów	-dzę	-ku
!!LO:LB:g=original
=8	=8	=8	=8	=8	=8	=8	=8
4GG/ 4G	4r	p	8.cc/	z bie-	la-	za	nie-
.	.	.	16cc/	-dnèj	-tam	Wo-	-ma
4r	4d/ 4g 4b	.	4b/	cha-	w la-	-ła-	gro-
4r	4B/ 4d 4g	.	4g/	-ty	-to	-mi	-sza
=9	=9	=9	=9	=9	=9	=9	=9
*	*	*	*	*	*ij	*ij	*
4DD/ 4D	4r	.	4.a/	Je-	Je-	Je-	Je-
(8qC#X/	.	.	.	.	.	.	.
4D/)	4d/ 4f# 4a	.	.	.	.	.	.
.	.	.	8d/	-dnak	-dnak	-dnak	-dnak
(8qC#/	.	.	.	.	.	.	.
4D/)	4d/ 4f# 4a	.	8f#/	ja	ja	ja	ze
.	.	.	8a/	se	se	se	nie
=10	=10	=10	=10	=10	=10	=10	=10
4GG/ 4D	4r	.	8.cc\	przy	przy	przy	spusz-
.	.	.	16cc\	tu-	tu-	tu-	-czam
(8qC#X/	.	.	.	.	.	.	.
4D/)	4d/ 4g 4b	.	4b\	-pu-	-pu-	-pu-	no-
(8qC#/	.	.	.	.	.	.	.
4D/)	4d/ 4g 4b	.	4dd\	-je	-je	-je	-sa
*	*	*	*	*	*Xij	*Xij	*
!!LO:PB:g=original
=11	=11	=11	=11	=11	=11	=11	=11
*	*	*	*	*	*ij	*ij	*
4DD/ 4D	4r	.	4.a/	i	i	i	i
(8qC#X/	.	.	.	.	.	.	.
4D/)	4d/ 4f# 4a	.	.	.	.	.	.
.	.	.	8d/	we-	we-	we-	tań-
(8qC#/	.	.	.	.	.	.	.
4D/)	4d/ 4f# 4a	.	8f#/	-so-	-so-	-so-	-cu-
.	.	.	8a/	-ło	-ło	-ło	-je
=12	=12	=12	=12	=12	=12	=12	=12
4GG/ 4D	4r	.	8.cc\	przy-	przy-	przy-	przy-
.	.	.	16cc\	-spie-	-spie-	-spie-	-spie-
(8qC#X/	.	.	.	.	.	.	.
4D/)	4B/ 4d 4g	.	4b/	-wu-	-wu-	-wu-	-wu-
(8qC#/	.	.	.	.	.	.	.
4D/)	4B/ 4d 4g	.	4g/	-je	-je	-je	-je
=13	=13	=13	=13	=13	=13	=13	=13
*	*	*	*	*	*	*	*ij
4DD/ 4D	4r	.	4.a/	Bo	Bo	Bo	Bo
(8qC#X/	.	.	.	.	.	.	.
4D/)	4d/ 4f# 4a	.	.	.	.	.	.
.	.	.	8d/	mam	mam	mam	mam
4D/	4d/ 4f# 4a	.	8f#/	rę-	rę-	rę-	rę-
.	.	.	8a/	-ce	-ce	-ce	-ce
*	*	*	*	*	*Xij	*Xij	*Xij
!!LO:LB:g=original
=14	=14	=14	=14	=14	=14	=14	=14
*	*	*	*	*	*ij	*ij	*ij
4GG/ 4D	4r	.	8.cc\	do-	do-	do-	do-
.	.	.	16cc\	-ro-	-ro-	-ro-	-ro-
(8qC#X/	.	.	.	.	.	.	.
4D/)	4d/ 4g 4b	.	4b/	-bo-	-bo-	-bo-	-bo-
(8qC#/	.	.	.	.	.	.	.
4D/)	4d/ 4g 4b	.	4cc\	-ty	-ty	-ty	-ty
=15	=15	=15	=15	=15	=15	=15	=15
4DD/ 4D	4r	.	4.a/	a	a	a	a
(8qC#X/	.	.	.	.	.	.	.
4D/)	4d/ 4f# 4a	.	.	.	.	.	.
.	.	.	8d/	pod-	pod-	pod-	pod-
(8qC#/	.	.	.	.	.	.	.
4D/)	4d/ 4f# 4a	.	8f#/	-ków-	-ków-	-ków-	-ków-
.	.	.	8a/	-ki	-ki	-ki	-ki
=16	=16	=16	=16	=16	=16	=16	=16
4GG/	4r	.	8.cc\	do-	do-	do-	do-
.	.	.	16cc\	-o-	-o-	-o-	-o-
4G\	4B/ 4d 4g	.	4b/	-cho-	-cho-	-cho-	-cho-
4G\	4B/ 4d 4g	.	4g/	-ty	-ty	-ty	-ty
*	*	*	*	*	*Xij	*Xij	*Xij
!!LO:LB:g=original
=17	=17	=17	=17	=17	=17	=17	=17
!	!	!LO:DY:rj	!	!	!	!	!
8D\ 8G 8B	8b\L 8bb	f	2.r	.	.	.	.
8r	8dd\J 8ddd	.	.	.	.	.	.
2D^\ 2F# 2c	4.ee\ 4.eee	.	.	.	.	.	.
.	8a\ 8aa	.	.	.	.	.	.
=18	=18	=18	=18	=18	=18	=18	=18
4GG/	8cc\L 8ccc	.	2.r	.	.	.	.
.	16r	.	.	.	.	.	.
.	16cc\Jk 16ccc	.	.	.	.	.	.
4D\ 4G 4B	4b\ 4bb	.	.	.	.	.	.
4D\ 4G 4B	4dd\ 4ddd	.	.	.	.	.	.
=19	=19	=19	=19	=19	=19	=19	=19
8D\ 8G 8B	8b\L 8bb	.	2.r	.	.	.	.
8r	8dd\J 8ddd	.	.	.	.	.	.
2D^\ 2F# 2c	4.ee\ 4.eee	.	.	.	.	.	.
.	8a\ 8aa	.	.	.	.	.	.
=20	=20	=20	=20	=20	=20	=20	=20
!	!	!	!LO:TX:t=[segno]	!	!	!	!
4GG/	8ccc\L	.	2.r	.	.	.	.
.	16r	.	.	.	.	.	.
.	8qddd/	.	.	.	.	.	.
.	16ccc\Jk	.	.	.	.	.	.
4G\ 4B	4bb\	.	.	.	.	.	.
!LO:TX:t=[segno]	!LO:TX:t=[segno]	!	!	!	!	!	!
4G;\ 4B	4gg;\	.	.	.	.	.	.
=:|!	=:|!	=:|!	=:|!	=:|!	=:|!	=:|!	=:|!
*-	*-	*-	*-	*-	*-	*-	*-
!!!system-decoration: s1{(s2,s3)}
!!!ENC: Filip Voros
!!!END: 2023-07-10
!!!ENC: Marta Chmielewska
!!!END: 2023-07-13
!!!YEC: Copyright 2022 Narodowy Instytut Fryderyka Chopina (https://polishscores.org)
!!!YEM: License CC-BY-4.0 (https://creativecommons.org/licenses/by/4.0)
